!!!COM: Bach, Johann Sebastian
!!!OPR: Joh. Seb. Bachs vierstimmige Choralges‰nge
!!!XEN: Four-part Chorales
!!!OTL: 141. O Welt, sieh' hier dein Leben
!!!SCT: BWV 394
!!!SCA: Thematisch-systematisches Verzeichnis der musikalischen Werke Johann Sebastian Bach: Bach-Werke-Verzeichnis (Schmieder)
!!!YOR: Bach Gesellschaft Edition xxxix
!!!ENC: Steven Rasmussen
!!!CDT: 1685/3//-1750/7/28/
!!!OCY: Deutschland
!!!YEC: Copyright (c) 1994, 2000 Center for Computer Assisted Research in the Humanities
!!!YEM: Rights to all derivative editions reserved
!!!YEN: United States of America
**kern	**kern	**kern	**kern	**silbe
*I:[BASSO]	*I:[TENORE]	*I:[ALTO]	*I:[SOPRANO]	*I:[SOPRANO]
*clefF4	*clefGv2	*clefG2	*clefG2	*
*k[f#c#g#]	*k[f#c#g#]	*k[f#c#g#]	*k[f#c#g#]	*
*A:	*A:	*A:	*A:	*
*M4/4	*M4/4	*M4/4	*M4/4	*
4A	4e	8aL	8cc#L	O
.	.	8g#J	8bJ	.
=1	=1	=1	=1	=1
8dL	8f#L	4.f#	4a	Welt,
8c#J	8eJ	.	.	.
4B	4d	.	4b	sieh'
.	.	8g#	.	.
4A	4e	4.a	8cc#L	hier
.	.	.	8ddJ	.
4C#	4A	.	4ee	dein
.	.	8e	.	.
=2	=2	=2	=2	=2
4BB	4A	4f#	2dd	Le-
4E	4G#	4e	.	.
4AA;	4A;	4e;	4cc#;	-ben
8AL	4e	4a	8cc#L	am
8BJ	.	.	8ddJ	.
=3	=3	=3	=3	=3
4c#	4e	8aL	4ee	Stamm
.	.	8g#J	.	.
8C#L	4e	8aL	4ee	des
8DJ	.	8bJ	.	.
4E	8eL	8g#L	4b	Kreu-
.	8dJ	8f#J	.	.
8AL	4c#	4e	8cc#L	-zes
8G#J	.	.	8bJ	.
=4	=4	=4	=4	=4
4F#	4c#	4e	2a	schwe-
4BB	4B	4d#	.	.
4E;	4B;	4e;	4g#;	-ben,
8EL	4G#	4B	4e	dein
8DJ	.	.	.	.
=5	=5	=5	=5	=5
8C#L	4A	8eL	4a	Heil
8DJ	.	8f#J	.	.
8C#L	4d	4g#	4b	sinkt
8BBJ	.	.	.	.
4AA	8eL	8aL	8cc#L	in
.	8dJ	8g#J	8bJ	.
8AL	8eL	8aL	8cc#L	den
8DJ	8f#J	8bJ	8ddJ	.
=6	=6	=6	=6	=6
2E;	2e;	2g#;	2b;	Tod!
4r	4r	4r	4r	.
4C#	4e#	4g#	8cc#L	Der
.	.	.	8bJ	.
=7	=7	=7	=7	=7
4F#	8c#L	4f#	4a	gro-
.	8dJ	.	.	.
4G#	8c#L	4e	4b	-sse
.	8BJ	.	.	.
8AL	4A	8eL	8cc#L	F√ºrst
8BJ	.	8dJ	8ddJ	.
8AL	4A	4c#	4ee	der
8G#J	.	.	.	.
=8	=8	=8	=8	=8
4F#	8A	8c#L	2dd	Eh-
.	4f#	16BL	.	.
.	.	16AJJ	.	.
4G#	.	4B	.	.
.	8e	.	.	.
4A;	4e;	4A;	4cc#;	-ren
4F#	4f#	4a	8cc#L	l√§sst
.	.	.	8ddJ	.
=9	=9	=9	=9	=9
8G#L	4e	8bL	4ee	wil-
8AJ	.	8cc#J	.	.
8G#L	4B	8bL	4ee	-lig
8F#J	.	8aJ	.	.
8EL	8BL	8g#L	4b	sich
8F#J	8AJ	8f#J	.	.
8EL	8G#L	4g#	8cc#L	be-
8D#J	8F#J	.	8bJ	.
=10	=10	=10	=10	=10
4C#	8E	8g#L	2a	-schwe-
.	4c#	16f#L	.	.
.	.	16eJJ	.	.
4D#	.	4f#	.	.
.	8B	.	.	.
4E;	4B;	4e;	4g#;	-ren
4C#	8c#L	8eL	4e	mit
.	8BJ	8dJ	.	.
=11	=11	=11	=11	=11
4F#	4A	8c#L	4a	Schl√§-
.	.	8dJ	.	.
8EL	8G#L	8c#L	4b	-gen,
8DJ	8F#J	8BJ	.	.
8C#L	4.E	4A	8cc#L	Hohn
8BBJ	.	.	8ddJ	.
8C#L	.	4a	8eeL	und
8DJ	8F#	.	8ddJ	.
=12	=12	=12	=12	=12
8EL	(8G#	8eL	4cc#	gro-
8DJ	4A)	8f#J	.	.
4E	.	8BL	4b	-ssem
.	8G#	8eJ	.	.
4AA;	4E;	4c#;	4a;	Spott.
==|!	==|!	==|!	==|!	==|!
*-	*-	*-	*-	*-
!!!RWG: Key is interpreted using the Humdrum key tool.
!!!URL-pdf: https://s9.imslp.org/files/imglnks/usimg/6/6b/IMSLP24489-PMLP09471-CCARH_Bach_Chorales.pdf#page=99 Musedata edition
!!!URL-pdf: https://s9.imslp.org/files/imglnks/usimg/7/7a/IMSLP04155-Bach_-_BGA_253-438.pdf#page=78 	Bach-Gesellschaft Ausgabe, Band 39 (pp.175-276) Leipzig: Breitkopf und H‰rtel, 1892. Plate B.W. XXXIX.
!!!END: 1994/07/27
!!!EMD: Converted from MuseData to Humdrum Dec 19, 2000, by Andreas Kornstaedt using muse2kern.
!!!EED: Craig Stuart Sapp
!!!EEV: 2024/03/31
!!!ONB: Some non-unicode characters
!!!filter-keyboard: satb2gs
